X: 0
T: Pilkku
M: 2/4
L: 1/8
Q: 1/4=50
K: C
% - - - - - - - - - - - - - - - - - - - - - - - - -
P: Pilkku  [C]
K: C
|: "F"fA cc | fA cc | "Dm"fe dc | "G7"(BA) G2 :|
w:1.~Il-lalla pil-kalla | pil-kis-tin ja | pil-kalla pis-tin | pii-*loon.
w:2.~N\"ay-t\"a euk-ko, n\"ay-t\"a euk-ko, n\"ay-t\"a ty-t\"ar-t\"a-*si!
|: "C"Gc cc | "G7"cB Bd | fe dc | BA G2 :|
w: Sor-mien v\"alis-t\"a v\"ai-pis-tel-len hai-ke-as-ti kat-*soin.
w: Tuos' on, tuoss' on, tuoss' on tuoss' on; pa-ne vaik-ka pan-*tiks'!
% - - - - - - - - - - - - - - - - - - - - - - - - -
P: Pilkku  [G]
K: G
|: "C"cE GG | cE GG | "Am"cB AG | "D7"FE D2 :|
|: "G"DG GG | "D7"GF FA | cB AG | FE D2 :|

%%sep 1 1 500

